svg/logo.svg

<svg width="45" height="37" viewBox="0 0 45 37" fill="none" xmlns="http://www.w3.org/2000/svg">
<path d="M20.0895 0.58678C20.633 0.537867 21.0583 0.667375 21.3864 0.951038C21.7304 1.24861 21.951 1.7019 22.1042 2.24108L22.155 2.44518C22.3524 3.34031 22.2331 4.37317 22.0885 5.32506L22.0212 5.75866C21.0945 11.6369 17.2029 18.0214 14.4167 21.3768C14.521 22.2975 14.7044 23.3525 15.1012 24.2626C15.5057 25.1897 16.1259 25.9525 17.0993 26.2821L17.2048 26.3133C17.6999 26.4458 18.2999 26.3695 18.9889 26.0672C17.6568 24.3922 17.4489 21.9302 18.4469 19.7997L18.5114 19.6669C18.8492 19.0061 19.3714 18.3957 19.9508 17.9344C20.5668 17.4441 21.263 17.1107 21.8854 17.077L22.0007 17.0721C23.177 17.0513 24.0965 17.7007 24.4508 18.8172L24.5065 19.0096C24.7581 19.9815 24.6487 21.1396 24.2487 22.3133C23.848 23.4891 23.1523 24.6907 22.2204 25.7538L22.0319 25.9647C21.9831 26.0176 21.938 26.0681 21.9001 26.1112C21.9196 26.1174 21.9402 26.1242 21.9616 26.1307C22.0878 26.169 22.2341 26.2095 22.3317 26.2303L22.486 26.2508C22.5547 26.2576 22.6401 26.2646 22.738 26.2704C22.9297 26.2816 23.1622 26.2891 23.4001 26.2938C23.8791 26.3033 24.37 26.2978 24.5983 26.2733L24.9557 26.2274C25.7898 26.1007 26.6268 25.845 27.3825 25.4852L27.6784 25.3368C27.7821 25.2828 27.8876 25.2271 27.9821 25.1747C28.0609 25.131 28.1309 25.0891 28.1872 25.0555L28.0651 24.9178C27.031 23.681 26.6439 22.1533 26.8327 20.871C27.0218 19.5878 27.7941 18.5321 29.0876 18.2967L29.2448 18.2723C30.0277 18.1742 30.7428 18.4178 31.2946 18.9208C31.8812 19.4555 32.2772 20.2769 32.3864 21.2772L32.403 21.494C32.4496 22.5153 32.0566 23.6287 31.3288 24.5751L31.1676 24.7753C31.1272 24.8234 31.1 24.8571 31.0768 24.8856C31.5068 25.0878 32.0217 25.2181 32.5202 25.2723L32.6901 25.287C33.5535 25.3436 34.6045 25.1463 35.2946 24.7938L35.3483 24.7665L35.2214 24.4286C34.5586 22.6719 34.2836 21.1377 34.403 19.9012C34.5229 18.6608 35.0418 17.7124 35.9655 17.1551L36.113 17.0721C37.6459 16.2692 39.4712 17.1443 39.943 18.9178L39.9948 19.1317C40.4732 21.2769 39.6263 23.6011 37.7897 25.244L37.6032 25.4061L37.5368 25.4618L37.7204 25.8505L37.9606 26.3465C39.2144 28.8622 41.1993 31.9288 43.4118 34.7577L43.7214 35.163C43.8023 35.2731 43.8631 35.3613 43.9069 35.4364C43.9769 35.5566 44.0082 35.6488 44.0192 35.745L44.0241 35.8436C44.0207 36.6066 43.115 36.9656 42.5719 36.4686L42.5212 36.4178C42.4157 36.3053 42.0791 35.8788 41.6589 35.328L41.2155 34.7421C39.3462 32.2522 37.658 29.5915 36.5016 27.3172L36.278 26.868L36.0358 26.3719L35.8844 26.4403C34.5266 27.0446 32.8911 27.1974 31.4889 26.8592L31.2116 26.785C30.667 26.6243 30.1883 26.3885 29.7038 26.1366L29.3825 26.3563L29.3805 26.3573C27.8408 27.3792 26.1716 27.9275 24.3083 28.0214L23.9333 28.0331C22.4172 28.0599 21.7369 27.9705 20.9157 27.5926L20.7487 27.5126L20.6608 27.4686L20.6344 27.4559L20.6305 27.453L20.3913 27.3104C18.6834 28.3093 16.951 28.3204 15.6911 27.4774L15.569 27.3915L15.5505 27.3788C15.1545 27.0892 14.6549 26.7244 14.1667 26.0663C13.6887 25.422 13.2269 24.5026 12.8708 23.1063C11.6561 24.2453 10.034 25.2912 8.38151 26.0946C6.75642 26.8846 5.09126 27.4456 3.74577 27.6297L3.48015 27.662C3.11699 27.6991 2.43017 27.7268 2.04655 27.0624C1.95206 26.8985 1.90575 26.7358 1.90788 26.5751C1.91012 26.4147 1.95993 26.265 2.04265 26.1258C2.20511 25.8528 2.50213 25.6048 2.84636 25.3612L3.1989 25.1044C4.92748 23.8145 6.09689 22.4394 6.84245 21.3641C7.23999 20.7908 7.51665 20.3025 7.69401 19.9589C7.73616 19.8772 7.77322 19.8037 7.80437 19.7391C6.00175 20.5383 3.75489 21.4262 1.75749 21.5331L1.55339 21.5419C1.06601 21.5547 0.668606 21.3051 0.546553 20.9833L0.526045 20.9178C0.414757 20.4818 0.677233 20.0375 1.11296 19.9256L1.11687 19.9247H1.11784L1.13737 19.9198C1.15122 19.9165 1.17204 19.9116 1.1989 19.9051C1.25309 19.8922 1.33334 19.8735 1.43522 19.8485C1.63962 19.7983 1.93394 19.7241 2.29069 19.6307C3.00426 19.4439 3.96969 19.1777 4.97722 18.8612L5.22917 18.7792C6.4837 18.3625 7.62915 17.8193 8.38933 17.4755L8.81022 17.2762C8.93142 17.2204 9.0452 17.1753 9.18522 17.1395L9.26628 17.1239C9.4608 17.099 9.69845 17.1483 9.89616 17.2665C10.1287 17.4055 10.3209 17.6498 10.321 18.0018C10.3209 18.8499 9.8557 20.1371 9.17448 21.3924C8.63332 22.3897 7.94461 23.3843 7.2194 24.1464C9.38343 23.1696 10.597 22.4213 12.5739 20.659L12.5573 19.5653C12.532 17.969 12.6254 16.3395 12.8219 14.7401L12.86 14.4442L12.9587 13.743C13.484 10.2505 14.4887 6.95737 15.7868 4.53112L15.9889 4.16393C16.4664 3.32411 16.9821 2.5982 17.528 2.0194L17.6676 1.87682C18.3757 1.17602 19.2246 0.697822 19.9782 0.599476L20.0895 0.58678ZM43.1149 36.5594C43.0447 36.5553 42.9741 36.5418 42.9059 36.5165C42.9742 36.5418 43.0447 36.5553 43.1149 36.5594ZM43.8346 36.1102C43.821 36.1444 43.8041 36.1761 43.7858 36.2069C43.8041 36.1761 43.8211 36.1444 43.8346 36.1102ZM39.196 31.6327C39.6397 32.3075 40.1066 32.9861 40.5895 33.6581L39.8786 32.6464C39.6461 32.3083 39.4179 31.9702 39.196 31.6327ZM36.6237 27.2557C36.9668 27.9305 37.3596 28.6382 37.7878 29.3671C37.3596 28.6382 36.9668 27.9305 36.6237 27.2557ZM20.3923 27.1522C19.7356 27.547 19.0778 27.7908 18.4469 27.8934L18.7643 27.8309C19.0838 27.756 19.4089 27.6454 19.736 27.4979C19.9542 27.3996 20.1733 27.2848 20.3923 27.1532V27.1522ZM20.8092 27.3905C21.0091 27.4892 21.1975 27.5689 21.3874 27.6356C21.1977 27.5689 21.0098 27.489 20.8102 27.3905H20.8092ZM3.72819 27.494L3.72722 27.495L3.72819 27.494ZM5.14812 27.1932V27.1942V27.1932ZM2.16472 26.993V26.994V26.993ZM14.277 25.9842C14.574 26.3848 14.8748 26.6735 15.155 26.9042L14.985 26.7587C14.7549 26.5538 14.5148 26.3048 14.277 25.9842ZM31.2497 26.6542H31.2507H31.2497ZM29.3053 26.243C29.2039 26.3103 29.1022 26.3762 28.9997 26.4393C29.1021 26.3763 29.2041 26.3112 29.3053 26.244L29.695 25.9794V25.9784L29.3053 26.243ZM35.8288 26.3143V26.3153V26.3143ZM25.7008 26.2206H25.7018H25.7008ZM19.0094 25.8729H19.0104H19.0094ZM22.2995 25.451C22.2868 25.4663 22.2732 25.4808 22.2604 25.496C22.3925 25.339 22.5207 25.1803 22.6423 25.0184L22.2995 25.451ZM28.3844 25.0624C28.3908 25.0686 28.3961 25.074 28.4001 25.078C28.3962 25.0741 28.3916 25.0685 28.3854 25.0624H28.3844ZM21.8503 18.7313C21.2014 18.8485 20.5603 19.4803 20.1169 20.3544C19.6767 21.2221 19.4529 22.29 19.6051 23.2196L19.6296 23.3544C19.6952 23.6722 19.8116 24.0144 19.9518 24.3212C20.1083 24.6634 20.2891 24.948 20.4528 25.1073L20.6071 24.9422L20.7829 24.7489C21.6489 23.7765 22.2793 22.7189 22.6335 21.6483L22.7135 21.3856C22.8826 20.7747 22.9312 20.1905 22.8737 19.7274C22.8105 19.2184 22.6283 18.9064 22.3952 18.8065L22.3473 18.7889C22.2631 18.7639 22.1617 18.7446 22.0671 18.7342C22.0185 18.7289 21.9748 18.7268 21.9382 18.7264L21.8503 18.7313ZM4.72722 24.0047C4.43747 24.2754 4.12569 24.5473 3.79069 24.8172C4.1257 24.5473 4.43747 24.2754 4.72722 24.0047ZM27.821 24.3651C27.6611 24.1269 27.5223 23.8816 27.4059 23.6317C27.4835 23.7983 27.5708 23.963 27.6676 24.1249C27.716 24.2057 27.7668 24.2858 27.82 24.3651H27.821ZM17.9587 22.7167C17.965 22.9886 17.9894 23.2579 18.0319 23.5223C17.9894 23.2579 17.9649 22.9886 17.9587 22.7167ZM29.6891 24.0282C29.7854 23.9131 29.8858 23.7817 29.985 23.6376C29.8858 23.7816 29.7854 23.913 29.6891 24.0282ZM29.9059 20.1073C29.6257 19.9701 29.3552 19.9828 29.1315 20.1083C28.9332 20.2195 28.7598 20.4268 28.651 20.7235L28.6081 20.8573C28.3016 21.9643 28.8317 23.0982 29.5573 23.9725L29.5602 23.9686C29.9673 23.4901 30.453 22.6994 30.6296 21.9354C30.7177 21.554 30.7262 21.1901 30.6208 20.8778C30.5299 20.6086 30.3512 20.3683 30.0446 20.1835L29.9059 20.1073ZM37.318 18.4999C36.7708 18.5905 36.396 18.9691 36.2204 19.6053C36.0414 20.2541 36.0748 21.1614 36.3591 22.2557L36.4919 22.7255C36.545 22.9046 36.6046 23.0981 36.6618 23.2782C36.7188 23.4579 36.7734 23.6237 36.8171 23.7489C36.822 23.7629 36.8271 23.777 36.8317 23.7899C37.0558 23.5641 37.3955 23.1692 37.6823 22.7137L37.778 22.5546C38.239 21.7479 38.4332 20.8148 38.3805 20.0448C38.3269 19.2624 38.028 18.7085 37.5651 18.5536L37.4694 18.5272C37.4256 18.5181 37.3839 18.51 37.3522 18.5047C37.3378 18.5024 37.3262 18.5009 37.318 18.4999ZM10.8327 22.2665C10.6005 22.437 10.372 22.5961 10.1423 22.7469C9.68274 23.0485 9.21896 23.3178 8.71354 23.5809H8.71452C9.47235 23.1863 10.1365 22.7778 10.8327 22.2665ZM31.901 23.3378C31.878 23.3912 31.8548 23.4448 31.8298 23.4979C31.8548 23.4448 31.878 23.3912 31.901 23.3378ZM12.9538 22.8397H12.9528H12.9538ZM24.0114 22.5585C23.9725 22.6606 23.9317 22.7629 23.8883 22.8651C23.9317 22.7629 23.9725 22.6606 24.0114 22.5585ZM6.57683 21.9608C6.41508 22.174 6.23696 22.394 6.0446 22.621C6.23696 22.394 6.41508 22.174 6.57683 21.9608ZM19.5895 21.3612V21.3622V21.3612ZM34.5426 21.1337C34.5581 21.3074 34.5805 21.4854 34.6081 21.6678C34.5805 21.4854 34.5582 21.3074 34.5426 21.1337ZM12.5407 20.871C12.3243 21.0623 12.1176 21.2422 11.9167 21.411C12.1176 21.2422 12.3243 21.0623 12.5407 20.871ZM1.07683 21.3172C1.03226 21.2978 0.990353 21.2762 0.951826 21.2518C1.02905 21.3006 1.11905 21.3401 1.2194 21.3671L1.07683 21.3172ZM3.96159 21.0174C3.70766 21.0854 3.4542 21.1477 3.20183 21.2001L3.62468 21.1053C3.73703 21.0781 3.84907 21.0476 3.96159 21.0174ZM18.3844 20.2997C18.2871 20.5542 18.205 20.8116 18.1413 21.0712L18.2565 20.662C18.295 20.5404 18.3385 20.4199 18.3844 20.2997ZM9.59831 20.203C9.51838 20.3895 9.43256 20.5795 9.33952 20.7704C9.43258 20.5795 9.51837 20.3895 9.59831 20.203ZM34.5143 20.3807H34.5134H34.5143ZM29.9655 19.9852C30.0715 20.0371 30.1662 20.0946 30.2507 20.1571V20.1561C30.1664 20.0938 30.0713 20.036 29.9655 19.9842V19.9852ZM8.0114 19.619C7.97149 19.7078 7.91166 19.834 7.83073 19.9921C7.91286 19.8317 7.97343 19.7041 8.01335 19.6151L8.0114 19.619ZM23.0085 19.7108H23.0094H23.0085ZM38.2155 18.9442C38.2581 19.0162 38.2958 19.0941 38.3298 19.1766C38.3637 19.2592 38.3935 19.3466 38.4186 19.4383H38.4196C38.3693 19.2547 38.3008 19.0883 38.2155 18.9442ZM18.8512 19.3505L18.8503 19.3514L18.8512 19.3505ZM4.27312 19.2186C4.08214 19.2754 3.89469 19.3296 3.71257 19.3817C4.12683 19.2631 4.56849 19.1333 5.01823 18.9921L4.27312 19.2186ZM34.6989 19.0663H34.6999H34.6989ZM14.7341 18.3153H14.7331H14.7341ZM7.76042 17.912C7.38128 18.0831 6.95107 18.2728 6.48796 18.4598C6.95105 18.2728 7.38128 18.0832 7.76042 17.912ZM37.9079 18.5839C37.8478 18.5369 37.7831 18.4978 37.7145 18.4657C37.783 18.4978 37.8479 18.5369 37.9079 18.5839ZM34.9128 18.5087H34.9137H34.9128ZM20.2233 2.3778C20.184 2.3635 20.1196 2.35917 20.0241 2.38951C19.9288 2.41985 19.8103 2.48195 19.6706 2.58678C19.3908 2.79677 19.0421 3.16589 18.6432 3.74205C17.8958 4.82178 16.9847 6.61085 16.029 9.38756L15.8376 9.95592C15.2643 11.6912 14.8928 13.9726 14.6647 15.826C14.5508 16.7515 14.4729 17.5681 14.4235 18.1532C14.4098 18.3152 14.3988 18.46 14.3893 18.5839C14.4552 18.4853 14.5336 18.3709 14.6188 18.2401C14.9407 17.7463 15.3912 17.0291 15.9069 16.1385C16.9385 14.357 18.2287 11.8821 19.2624 9.10534C20.297 6.3258 20.589 4.62422 20.5885 3.62194C20.5883 3.12112 20.5143 2.80236 20.4303 2.61217C20.3884 2.51718 20.3451 2.45711 20.3102 2.42272C20.2798 2.39274 20.2608 2.38661 20.2575 2.38561L20.2399 2.38366L20.2233 2.3778ZM19.5973 18.4315C19.5615 18.4669 19.5278 18.5044 19.4928 18.5409C19.5964 18.4327 19.7025 18.3276 19.8132 18.2294L19.5973 18.4315ZM36.0368 17.2723C35.872 17.3717 35.7199 17.484 35.5817 17.6092C35.4895 17.6928 35.4032 17.7821 35.3229 17.8768L35.3239 17.8758C35.5245 17.6395 35.7623 17.4379 36.0368 17.2723ZM20.735 17.577H20.736H20.735ZM9.2194 17.2723C9.13695 17.2934 9.06571 17.3185 8.99577 17.3465C9.06581 17.3184 9.13678 17.2935 9.2194 17.2723ZM36.4958 17.0536C36.4392 17.0739 36.3828 17.0961 36.3268 17.121C36.3828 17.0961 36.4392 17.0739 36.4958 17.0536ZM36.7467 16.9774H36.7477H36.7467ZM37.1862 16.912C37.1368 16.9146 37.0873 16.9199 37.0378 16.9256C37.0873 16.9199 37.1367 16.9146 37.1862 16.912ZM12.9577 14.7567H12.9587H12.9577ZM16.8415 14.744L16.8425 14.743L16.8415 14.744ZM20.0544 2.24108C20.0049 2.25115 19.9513 2.26777 19.8942 2.29284L19.9831 2.25963C20.0077 2.25181 20.0314 2.24573 20.0544 2.24108ZM20.1413 2.23034C20.1652 2.22963 20.1881 2.23004 20.2096 2.23326C20.1881 2.23005 20.1652 2.22962 20.1413 2.23034ZM18.901 1.11803C18.8071 1.16932 18.714 1.22595 18.6208 1.286C18.714 1.22595 18.8071 1.16932 18.901 1.11803ZM19.7048 0.790882H19.7057H19.7048Z" fill="#0D131A"/>
</svg>

<svg fill="none" viewBox="0 0 45 37"><path fill="#0D131A" d="M20.09.587c.543-.05.968.08 1.296.364.344.298.565.75.718 1.29l.051.204c.197.895.078 1.928-.067 2.88l-.067.434c-.927 5.878-4.818 12.262-7.604 15.618.104.92.287 1.976.684 2.886.405.927 1.025 1.69 1.998 2.02l.106.03c.495.133 1.095.056 1.784-.246-1.332-1.675-1.54-4.137-.542-6.267l.064-.133c.338-.66.86-1.271 1.44-1.733.616-.49 1.312-.823 1.934-.857l.116-.005c1.176-.02 2.095.629 2.45 1.745l.055.193c.252.971.143 2.13-.257 3.303-.401 1.176-1.097 2.378-2.029 3.44l-.188.212-.132.146.062.02c.126.038.272.078.37.1l.154.02q.104.01.252.02c.192.01.424.018.662.023.48.01.97.004 1.198-.02l.358-.047a8.8 8.8 0 0 0 2.427-.742l.295-.148c.104-.054.21-.11.304-.162q.12-.067.205-.12l-.122-.137c-1.034-1.237-1.421-2.765-1.232-4.047.189-1.283.961-2.339 2.255-2.574l.157-.025a2.52 2.52 0 0 1 2.05.649c.586.535.982 1.356 1.091 2.356l.017.217c.047 1.021-.346 2.135-1.074 3.081l-.161.2-.091.11c.43.203.945.333 1.443.387l.17.015c.864.057 1.915-.14 2.605-.493l.053-.027-.127-.338c-.662-1.757-.937-3.291-.818-4.528.12-1.24.639-2.189 1.563-2.746l.147-.083c1.533-.803 3.358.072 3.83 1.846l.052.214c.478 2.145-.369 4.47-2.205 6.112l-.187.162-.066.056.183.389.24.495c1.254 2.516 3.24 5.583 5.452 8.412l.31.405c.08.11.141.198.185.273.07.12.101.213.112.309l.005.099c-.003.763-.909 1.122-1.452.625l-.05-.051a23 23 0 0 1-.863-1.09l-.444-.586c-1.869-2.49-3.557-5.15-4.713-7.425l-.224-.449-.242-.496-.152.068c-1.357.605-2.993.757-4.395.42l-.277-.075c-.545-.16-1.024-.396-1.508-.648l-.322.22h-.002a9.85 9.85 0 0 1-5.072 1.664l-.375.012c-1.516.027-2.196-.062-3.017-.44l-.167-.08-.088-.044-.027-.013-.003-.003-.24-.143c-1.708 1-3.44 1.01-4.7.167l-.122-.085-.019-.013c-.396-.29-.895-.655-1.383-1.313-.478-.644-.94-1.563-1.296-2.96-1.215 1.14-2.837 2.185-4.49 2.989-1.625.79-3.29 1.35-4.635 1.535l-.266.032c-.363.037-1.05.065-1.433-.6a.95.95 0 0 1-.14-.487.9.9 0 0 1 .136-.45c.162-.272.46-.52.803-.764l.353-.257a16.3 16.3 0 0 0 3.643-3.74 13 13 0 0 0 .962-1.625c-1.802.8-4.05 1.687-6.047 1.794l-.204.009c-.487.013-.884-.237-1.006-.559l-.021-.065a.816.816 0 0 1 .587-.992l.004-.001.02-.005.062-.015.236-.056a59.086 59.086 0 0 0 3.542-.987l.252-.083c1.255-.416 2.4-.96 3.16-1.303l.421-.2c.121-.056.235-.1.375-.136l.081-.016c.195-.025.432.024.63.143a.84.84 0 0 1 .425.735c0 .848-.465 2.135-1.147 3.39-.54.998-1.23 1.992-1.955 2.754 2.164-.976 3.378-1.725 5.355-3.487l-.017-1.094a35 35 0 0 1 .265-4.825l.038-.296.099-.701c.525-3.492 1.53-6.786 2.828-9.212l.202-.367c.477-.84.993-1.566 1.539-2.145l.14-.142c.708-.701 1.557-1.18 2.31-1.278zm19.106 31.046c.444.674.91 1.353 1.394 2.025l-.711-1.012q-.35-.507-.683-1.013m-18.804-4.481c-.656.395-1.314.639-1.945.741l.317-.062q.48-.113.972-.333.327-.147.656-.345m.417.238h.001m-17.08.104-.002.001zm-1.564-.501v.001zm12.112-1.009c.297.4.598.69.878.92l-.17-.145a5 5 0 0 1-.708-.775m15.028.259v.001l.39-.265zm6.524.071v.001m-16.82-.441h.001m3.29-.422-.039.045q.198-.235.382-.478zm6.085-.389.016.016q-.005-.007-.015-.016m-6.534-6.33c-.649.117-1.29.748-1.733 1.622-.44.868-.664 1.936-.512 2.866l.025.134c.065.318.182.66.322.967.156.342.337.627.5.786l.155-.165.176-.193c.866-.973 1.496-2.03 1.85-3.1l.08-.263c.17-.611.218-1.195.16-1.659-.062-.509-.245-.82-.478-.92l-.048-.018a1.7 1.7 0 0 0-.409-.063zm5.971 5.633h-.001zm2.085-4.257c-.28-.138-.55-.125-.774 0-.199.111-.372.319-.481.616l-.043.133c-.306 1.107.224 2.241.95 3.116l.002-.004c.407-.479.893-1.27 1.07-2.034.088-.381.096-.745-.01-1.057-.09-.27-.269-.51-.575-.695zm7.412-1.608c-.547.09-.922.47-1.098 1.105-.179.65-.145 1.556.14 2.65l.132.47a31 31 0 0 0 .325 1.024l.015.04c.224-.225.563-.62.85-1.075l.096-.16c.461-.806.655-1.74.602-2.51-.053-.782-.352-1.335-.815-1.49l-.096-.027zm-26.485 3.767q-.347.255-.69.48c-.46.302-.924.57-1.43.834h.002a16 16 0 0 0 2.118-1.314m2.121.573h-.001m6.636-1.479v.001m-18.513-.044a1 1 0 0 1 .142.05zm2.885-.3q-.381.103-.76.183l.423-.095q.168-.041.337-.088m14.422-.717q-.146.382-.243.771l.116-.409q.058-.183.127-.362m11.581-.315q.16.078.286.172a2 2 0 0 0-.286-.173zM8.011 19.62l.002-.004zm30.204-.675q.063.108.115.233.051.124.089.261a2 2 0 0 0-.203-.494m-33.942.275a56 56 0 0 1 .745-.227zm15.95-16.841c-.039-.014-.103-.019-.199.012-.095.03-.214.092-.353.197-.28.21-.629.579-1.028 1.155-.747 1.08-1.658 2.869-2.614 5.646l-.191.568c-.574 1.735-.945 4.017-1.173 5.87a62 62 0 0 0-.241 2.327l-.035.43q.1-.147.23-.343a47 47 0 0 0 1.288-2.101c1.032-1.782 2.322-4.257 3.355-7.034 1.035-2.78 1.327-4.48 1.326-5.483 0-.5-.074-.82-.158-1.01a.6.6 0 0 0-.12-.19.14.14 0 0 0-.052-.036l-.018-.002zm-.626 16.054q-.054.053-.104.109.155-.163.32-.312zm16.44-1.16a3 3 0 0 0-.714.605v-.001q.303-.355.714-.604m-15.302.305h.001zm16.011-.6h.002zm-19.905-2.233.002-.001zm3.213-12.503a1 1 0 0 0-.16.052l.09-.033zm-.349-1.45"/></svg>
